!!!!SEGMENT: pl-wnifc--13878--001-002_dobrzynski-ignacy-feliks--nowe-spiewy-dla-dzieci-stanislaw-jachowicz-piesn-malej-dziewczynki.krn
!!!cenid: 18xx:4749
!!!COM: Dobrzyński, Ignacy Feliks
!!!COM-rismID: pe30020642
!!!CDT: 1807/02/15-1867/10/09
!!!CNT: Polish
!!!GTL: Nowe śpiewy dla dzieci (Stanisław Jachowicz)
!!!OTL: Pieśń małej dziewczynki
!!!OMV: 002
!!!PDT: 1856
!!!AGN: Secular; Song; Children
!!!YEC: Copyright 2022 Narodowy Instytut Fryderyka Chopina (https://polishscores.org)
!!!YEM: License CC-BY-4.0 (https://creativecommons.org/licenses/by/4.0)
!!!SMS-siglum: PL-Wnifc
!!!SMS-shelfmark: 13878
!!!SMS-variant:
!!!SMS-altvar:
!!!SMS-shelfwork: 001-002 G
!!!NIFC-rismSourceID: 1001203553
!!!NIFC-rismChildID: 1001203553
!!!NIFC-islandoraID: nifc:211143
!!!URL-pdf-islandora: https://repozytorium.nifc.pl/islandora/object/nifc%3A211143/datastream/PDF/view
!!!URL-scan: https://polish.musicsources.pl/pl/lokalizacje/galeria/druki-muzyczne/16798/21 @EN{Scan on Polish Music Sources Website} @PL{Skany w portalu Dziedzictwo Muzyki Polskiej w otwartym dostępie}
!!!IIIF:
!!!ONB-nifc:
!!!AIN: 2 empty 1 piano
!!!key:
**kern	**kern	**dynam	**kern	**text	**text
*part3	*part2	*part2	*part1	*part1	*part1
*staff3	*staff2	*	*staff1	*staff1	*staff1
*Ipiano	*Iempty	*	*Iempty	*	*
*I"PIANO	*I"FORTE	*	*I"GŁOS	*	*
*	*I'pf	*	*I'voce umana	*	*
*clefF4	*clefG2	*	*clefG2	*	*
*k[f#]	*k[f#]	*	*k[f#]	*	*
*G:	*G:	*	*G:	*	*
*M3/8	*M3/8	*	*M3/8	*	*
=1	=1	=1	=1	=1	=1
!	!	!	!LO:TX:a:t=Mazurek	!	!
16GG\LL 16D	16B/LL 16g	.	4.r	.	.
16GG\J 16D	16B/J 16g	.	.	.	.
8GG\ 8D	8B/ 8g	.	.	.	.
8GG\J 8D	8B/J 8g	.	.	.	.
=2	=2	=2	=2	=2	=2
8GG\L 8D	8B/L 8g	.	4.r	.	.
8GG\ 8D	8B/ 8g	.	.	.	.
8GG\J 8D	8B/J 8g	.	.	.	.
=3||	=3||	=3||	=3||	=3||	=3||
!LO:TX:b:t=	!LO:TX:a:t=	!	!LO:TX:a:t=	!	!
4GG\ 4G	8r	.	16g\	Tup-	Kie-
.	.	.	16b\	-ne	-dy
.	8B/L 8d 8g	.	8dd\	so-	brat
8r	8B/J 8d 8g	.	8cc#X\	-bie	wy-
=4	=4	=4	=4	=4	=4
4GG\ 4G	8r	.	4ee\	no-	-je-
.	8B/L 8d 8g	.	.	.	.
8r	8B/J 8d 8g	.	8dd\	-gą,	-chał,
=5	=5	=5	=5	=5	=5
4DD/ 4D	8r	.	16a\	we-	bi-
.	.	.	16cc\	-so-	-łoż
.	8c/L 8d 8f#	.	8b\	-ło	mi
8r	8c/J 8d 8f#	.	8a\	pod-	też,
=6	=6	=6	=6	=6	=6
4GG\ 4G	8r	.	8b/	-sko-	bi-
.	8B/L 8d 8g	.	8g/	-czę	-ło
8r	8B/J 8d 8g	.	8r	.	.
=7	=7	=7	=7	=7	=7
4GG\ 4G	8r	.	16g/	ser-	i
.	.	.	16b\	-de-	łez-
.	8B/L 8d 8g	.	8dd\	-cznie	-ki
8r	8A#X/J 8c#X 8g	.	8cc#X\	za-	pły-
=8	=8	=8	=8	=8	=8
4.GG\ 4.G	8A#X^/L 8c#X 8g	.	4ee\	-śpie-	-nę-
.	8A#/ 8c# 8g	.	.	.	.
.	8B/J 8d 8g	.	8dd\	-wam	-ły
=9	=9	=9	=9	=9	=9
4DD/ 4D	8r	.	16a/	pio-	aż
.	.	.	16cc/	-sen-	lżéj
.	8c/L 8d 8f#	.	8b/	-ki	po-
8r	8c/J 8d 8f#	.	8a/	o-	-tem
=10	=10	=10	=10	=10	=10
4GG\ 4G	8r	.	8a/	-cho-	by-
.	8B/L 8d 8g	.	8g/	-cze	-ło
8r	8B/J 8d 8g	.	8r	.	.
=11	=11	=11	=11	=11	=11
8D\L	8A/L 8d 8f#	.	16f#/	o	Ma-
.	.	.	16a/	skrom-	-łam
8AA\	8A/ 8c#X 8g	.	8.g/	-nym	ja
8AA\J	8A/J 8c# 8g	.	.	.	.
.	.	.	16e/	fi-	dzie-
=12	=12	=12	=12	=12	=12
!	!LO:TX:t=P:problem:partia fortepianu niewidoczna	!	!	!	!
4.ryy	4.ryy	.	8g/	-joł-	-wczyn-
.	.	.	4f#/	-ku	-ka
=13	=13	=13	=13	=13	=13
4.ryy	4.ryy	.	16f#/	o	i
.	.	.	16a/	stru-	ser-
.	.	.	8g/	-my-	-du-
.	.	.	8e/	-ku	-szko
=14	=14	=14	=14	=14	=14
4.ryy	4.ryy	.	8g/	ja-	ma-
.	.	.	8f#/	-snym	-łe
.	.	.	8r	.	.
=15	=15	=15	=15	=15	=15
4.ryy	4.ryy	.	16f#/	o	a-
.	.	.	16a/	ro-	-le
.	.	.	8.g/	-sie	ko-
.	.	.	16e/	per-	-chać
=16	=16	=16	=16	=16	=16
4.ryy	4.ryy	.	8g/	-ło-	u-
.	.	.	8f#/	-wéj	-mie
.	.	.	8r	.	.
=17	=17	=17	=17	=17	=17
4.ryy	4.ryy	.	16f#/	i	bo
.	.	.	16a/	o	nie
.	.	.	8.g/	ser-	ska-
.	.	.	16e/	-cu	-mie-
=18	=18	=18	=18	=18	=18
8D\L	8A/L 8c#X 8g	.	8g/	wła-	-nia-
8D\	8A/ 8d 8f#	.	8f#/	-sném	-łe
8D\J	8A/J 8cn 8d 8f#	.	8r	.	.
=19	=19	=19	=19	=19	=19
4GG\ 4G	8B/L 8d 8g	.	16g/	o	Ma-
.	.	.	16b\	ser-	-ma
.	8B/ 8d 8g	.	8.dd\	-du-	mnie
8r	8A/J 8c#X 8g	.	.	.	.
.	.	.	16cc\	-szko	u-
=20	=20	=20	=20	=20	=20
4.GG\ 4.G	8A#X^/L 8c#X 8g	.	4ee\	mo-	-czy-
.	8A#/ 8c# 8g	.	.	.	.
.	8B/J 8d 8g	.	8dd\	-je	-ła
=21	=21	=21	=21	=21	=21
4BB/	8r	.	16a/	wie-	ko-
.	.	.	16cc/	-leś	-chać
.	8A/L 8B 8d#X	.	8.b/	u-	Bo-
8r	8A/J 8B 8d#	.	.	.	.
.	.	.	16a/	-cier-	-ga
=22	=22	=22	=22	=22	=22
4EE/ 4E	8r	.	8a/	-pia-	w nie-
.	8G/L 8B 8e	.	8g/	-ło	-bie
8DD/ 8D	8c/J 8dn 8f#	.	8r	.	.
=23	=23	=23	=23	=23	=23
4GG/ 4G	8r	.	16g/	Kie-	a
.	.	.	16b\	-dyś	po-
.	8B/L 8d 8g	.	8dd\	lu-	-tém
8r	8A#X/J 8c#X 8g	.	8cc#X\	-bej	bli-
=24	=24	=24	=24	=24	=24
4.GG\ 4.G	8A#X^/L 8c#X 8g	.	4ee\	Ma-	-źnie-
.	8A#/ 8c# 8g	.	.	.	.
.	8B/J 8d 8g	.	8dd\	-my	-go,
=25	=25	=25	=25	=25	=25
4DD/ 4D	8r	.	16a/	dłu-	jak
.	.	.	16cc/	-go	sie-
.	8c/L 8d 8f#	.	8.b/	nie-	-bie
8r	8c/J 8d 8f#	.	.	.	.
.	.	.	16a/	-wi-	sa-
=26	=26	=26	=26	=26	=26
8GG\ 8G	8G/ 8g	.	8a/	-dzia-	-me-
4GGG/ 4GG	4g\ 4b 4dd 4gg	.	8g/	-ło,	-go.
.	.	.	8r	.	.
=27	=27	=27	=27	=27	=27
8G\L 8B 8d	16b\LL	f	4.r	.	.
.	16dd\J	.	.	.	.
8G\ 8A#X 8e	8cc#X\	.	.	.	.
8G\J 8A# 8c#X	8ee\J	.	.	.	.
=28	=28	=28	=28	=28	=28
8G\L 8B 8d	16dd\LL	.	4.r	.	.
.	16dd\J	.	.	.	.
8G\ 8A#X 8e	8cc#X\	.	.	.	.
8G\J 8A# 8c#X	8ee\J	.	.	.	.
=29	=29	=29	=29	=29	=29
8D\L 8An 8cn	16dd/LL	.	4.r	.	.
.	16dd/	.	.	.	.
8D\ 8F# 8c	16a/	.	.	.	.
.	16ccn/	.	.	.	.
8D\J 8F# 8c	16b/	.	.	.	.
.	16a/JJ	.	.	.	.
=30	=30	=30	=30	=30	=30
8G\L 8B	16g/LL	.	4.r	.	.
.	16a/J	.	.	.	.
8G\ 8B 8d	8b/	.	.	.	.
8G\J 8B 8d	8g/J	.	.	.	.
=31	=31	=31	=31	=31	=31
8G\L 8B 8d	16b\LL	.	4.r	.	.
.	16dd\J	.	.	.	.
8G\ 8A#X 8e	8cc#X\	.	.	.	.
8G\J 8A# 8c#X	8ee\J	.	.	.	.
=32	=32	=32	=32	=32	=32
8G\L 8B 8d	16dd\LL	.	4.r	.	.
.	16dd\J	.	.	.	.
8G\ 8A#X 8e	8cc#X\	.	.	.	.
8G\J 8A# 8c#X	8ee\J	.	.	.	.
=33	=33	=33	=33	=33	=33
8D\L 8F# 8An 8cn	16dd/LL	.	4.r	.	.
.	16dd/	.	.	.	.
8D\ 8F# 8c	16a/	.	.	.	.
.	16ccn/	.	.	.	.
8D\J 8F# 8c	16b/	.	.	.	.
.	16a/JJ	.	.	.	.
=34	=34	=34	=34	=34	=34
!	!	!	!LO:TX:a:t=	!	!
!	!	!	!LO:TX:b:t=Dal Segno	!	!
8G\ 8B	8g/	.	4.r	.	.
!	!LO:TX:b:t=Fine	!	!	!	!
!	!LO:TX:a:t=	!	!	!	!
4GG/ 4G	4g\ 4b 4dd 4gg	.	.	.	.
==	==	==	==	==	==
*-	*-	*-	*-	*-	*-
!!!system-decoration: s1[(s2,s3)]
!!!ENC: Filip Voros
!!!END: 2025-03-20
